;FLAVOR:UltiGCode
;TIME:8583
;MATERIAL:8945
;MATERIAL2:0

;Layer count: 119
;LAYER:0
M107
G0 F9000 X90.021 Y103.134 Z0.300
;TYPE:SKIRT
G1 F1200 X91.609 Y101.734 E0.25404
G1 X93.283 Y100.436 E0.50823
G1 X95.034 Y99.245 E0.76235
G1 X96.858 Y98.167 E1.01660
G1 X98.744 Y97.205 E1.27066
G1 X100.689 Y96.364 E1.52495
G1 X102.682 Y95.647 E1.77911
G1 X104.715 Y95.056 E2.03317
G1 X106.782 Y94.594 E2.28733
G1 X108.874 Y94.263 E2.54150
G1 X110.983 Y94.064 E2.79570
G1 X113.099 Y93.996 E3.04975
G1 X115.215 Y94.064 E3.30380
G1 X117.324 Y94.263 E3.55801
G1 X119.416 Y94.594 E3.81217
G1 X121.483 Y95.056 E4.06633
G1 X123.516 Y95.647 E4.32039
G1 X125.509 Y96.364 E4.57456
G1 X127.454 Y97.205 E4.82884
G1 X129.340 Y98.167 E5.08290
G1 X131.164 Y99.245 E5.33715
G1 X132.915 Y100.436 E5.59127
G1 X134.589 Y101.734 E5.84546
G1 X136.177 Y103.134 E6.09950
G1 X137.675 Y104.632 E6.35372
G1 X138.692 Y105.785 E6.53821
G1 X139.076 Y106.221 E6.60793
G1 X140.373 Y107.894 E6.86196
G1 X141.564 Y109.645 E7.11608
G1 X142.385 Y111.034 E7.30970
G1 X143.328 Y112.816 E7.55163
G1 X143.604 Y113.355 E7.62430
G1 X144.212 Y114.764 E7.80845
G1 X144.445 Y115.299 E7.87847
G1 X144.966 Y116.749 E8.06336
G1 X144.965 Y116.749 E8.06348
G1 X145.161 Y117.291 E8.13264
G1 X145.590 Y118.767 E8.31709
G1 X145.753 Y119.325 E8.38685
G1 X146.087 Y120.824 E8.57114
G1 X146.215 Y121.392 E8.64101
G1 X146.467 Y122.986 E8.83467
G1 X146.689 Y124.992 E9.07686
G1 X146.745 Y125.595 E9.14953
G1 X146.793 Y127.124 E9.33310
G1 X146.813 Y127.707 E9.40310
G1 X146.764 Y129.250 E9.58835
G1 X146.745 Y129.829 E9.65787
G1 X146.546 Y131.935 E9.91172
G1 X146.294 Y133.528 E10.10526
G1 X145.885 Y135.506 E10.34764
G1 X145.752 Y136.096 E10.42021
G1 X145.323 Y137.574 E10.60489
G1 X145.161 Y138.129 E10.67427
G1 X144.445 Y140.120 E10.92817
G1 X143.834 Y141.535 E11.11313
G1 X143.603 Y142.066 E11.18261
G1 X142.904 Y143.437 E11.36728
G1 X142.903 Y143.437 E11.36740
G1 X142.642 Y143.951 E11.43658
G1 X141.859 Y145.276 E11.62127
G1 X141.564 Y145.775 E11.69083
G1 X140.656 Y147.111 E11.88467
G1 X139.445 Y148.722 E12.12652
G1 X139.075 Y149.199 E12.19896
G1 X138.024 Y150.392 E12.38975
G1 X137.302 Y151.160 E12.51624
G1 X136.177 Y152.286 E12.70725
G1 X134.589 Y153.686 E12.96129
G1 X132.915 Y154.984 E13.21548
G1 X131.164 Y156.175 E13.46960
G1 X129.340 Y157.253 E13.72385
G1 X127.454 Y158.215 E13.97791
G1 X125.509 Y159.056 E14.23219
G1 X123.516 Y159.773 E14.48636
G1 X121.483 Y160.364 E14.74042
G1 X119.416 Y160.826 E14.99458
G1 X117.324 Y161.157 E15.24874
G1 X115.215 Y161.356 E15.50295
G1 X113.099 Y161.424 E15.75700
G1 X110.983 Y161.356 E16.01105
G1 X108.874 Y161.157 E16.26525
G1 X106.782 Y160.826 E16.51941
G1 X104.715 Y160.364 E16.77357
G1 X102.682 Y159.773 E17.02763
G1 X100.689 Y159.056 E17.28180
G1 X98.744 Y158.215 E17.53608
G1 X96.858 Y157.253 E17.79015
G1 X95.034 Y156.175 E18.04439
G1 X93.283 Y154.984 E18.29851
G1 X91.609 Y153.686 E18.55271
G1 X90.021 Y152.286 E18.80675
G1 X88.523 Y150.787 E19.06105
G1 X87.505 Y149.633 E19.24571
G1 X87.124 Y149.201 E19.31483
G1 X86.179 Y147.983 E19.49983
G1 X85.825 Y147.526 E19.56920
G1 X84.960 Y146.253 E19.75388
G1 X84.634 Y145.775 E19.82331
G1 X83.850 Y144.449 E20.00817
G1 X83.557 Y143.952 E20.07740
G1 X82.857 Y142.580 E20.26223
G1 X82.594 Y142.063 E20.33184
G1 X81.983 Y140.650 E20.51657
G1 X81.754 Y140.121 E20.58574
G1 X81.036 Y138.127 E20.84006
G1 X80.607 Y136.649 E21.02474
G1 X80.445 Y136.096 E21.09389
G1 X80.110 Y134.592 E21.27879
G1 X79.983 Y134.028 E21.34817
G1 X79.731 Y132.434 E21.54182
G1 X79.509 Y130.428 E21.78401
G1 X79.453 Y129.825 E21.85668
G1 X79.405 Y128.289 E22.04109
G1 X79.385 Y127.713 E22.11026
G1 X79.434 Y126.170 E22.29551
G1 X79.453 Y125.591 E22.36503
G1 X79.652 Y123.485 E22.61887
G1 X79.904 Y121.892 E22.81241
G1 X80.313 Y119.916 E23.05456
G1 X80.445 Y119.325 E23.12722
G1 X80.874 Y117.848 E23.31179
G1 X81.036 Y117.293 E23.38117
G1 X81.556 Y115.844 E23.56590
G1 X81.754 Y115.298 E23.63560
G1 X82.393 Y113.819 E23.82894
G1 X83.282 Y112.006 E24.07124
G1 X83.557 Y111.468 E24.14375
G1 X84.634 Y109.645 E24.39783
G1 X85.825 Y107.894 E24.65195
G1 X87.123 Y106.220 E24.90615
G1 X88.173 Y105.030 E25.09659
G1 X88.897 Y104.258 E25.22359
G1 X90.021 Y103.134 E25.41434
G10
G0 F9000 X92.618 Y105.911
;TYPE:WALL-INNER
G11
G1 F1200 X94.033 Y104.664 E25.64067
G1 X95.523 Y103.507 E25.86704
G1 X97.064 Y102.460 E26.09061
G1 X98.684 Y101.502 E26.31646
G1 X100.370 Y100.643 E26.54352
G1 X102.086 Y99.900 E26.76792
G1 X103.862 Y99.261 E26.99441
G1 X105.653 Y98.740 E27.21824
G1 X107.496 Y98.329 E27.44483
G1 X109.363 Y98.033 E27.67167
G1 X111.211 Y97.859 E27.89441
G1 X113.099 Y97.799 E28.12109
G1 X114.987 Y97.859 E28.34776
G1 X116.835 Y98.033 E28.57050
G1 X118.702 Y98.329 E28.79734
G1 X120.545 Y98.740 E29.02393
G1 X122.336 Y99.261 E29.24776
G1 X124.112 Y99.900 E29.47425
G1 X125.828 Y100.643 E29.69865
G1 X127.514 Y101.502 E29.92571
G1 X129.134 Y102.460 E30.15156
G1 X130.675 Y103.507 E30.37513
G1 X132.165 Y104.664 E30.60150
G1 X133.580 Y105.911 E30.82783
G1 X134.898 Y107.229 E31.05150
G1 X136.145 Y108.644 E31.27783
G1 X137.302 Y110.134 E31.50420
G1 X138.349 Y111.675 E31.72777
G1 X139.075 Y112.903 E31.89896
G1 X139.955 Y114.565 E32.12463
G1 X140.161 Y114.968 E32.17894
G1 X140.909 Y116.697 E32.40500
G1 X141.390 Y118.034 E32.57551
G1 X141.547 Y118.468 E32.63089
G1 X142.066 Y120.253 E32.85396
G1 X142.480 Y122.107 E33.08192
G1 X142.702 Y123.506 E33.25190
G1 X142.908 Y125.373 E33.47730
G1 X142.995 Y127.250 E33.70278
G1 X143.010 Y127.710 E33.75801
G1 X142.966 Y129.126 E33.92802
G1 X142.950 Y129.599 E33.98481
G1 X142.777 Y131.440 E34.20670
G1 X142.554 Y132.847 E34.37765
G1 X142.169 Y134.710 E34.60593
G1 X141.549 Y136.943 E34.88403
G1 X140.909 Y138.723 E35.11102
G1 X140.161 Y140.452 E35.33708
G1 X139.314 Y142.112 E35.56071
G1 X138.349 Y143.746 E35.78843
G1 X137.572 Y144.889 E35.95428
G1 X136.427 Y146.413 E36.18303
G1 X136.145 Y146.776 E36.23819
G1 X135.209 Y147.838 E36.40806
G1 X134.567 Y148.522 E36.52063
G1 X133.580 Y149.509 E36.68813
G1 X132.165 Y150.756 E36.91446
G1 X130.675 Y151.913 E37.14084
G1 X129.134 Y152.960 E37.36440
G1 X127.514 Y153.918 E37.59025
G1 X125.828 Y154.777 E37.81731
G1 X124.112 Y155.520 E38.04171
G1 X122.336 Y156.159 E38.26820
G1 X120.545 Y156.680 E38.49203
G1 X118.702 Y157.091 E38.71862
G1 X116.835 Y157.387 E38.94546
G1 X114.987 Y157.561 E39.16820
G1 X113.099 Y157.621 E39.39488
G1 X111.211 Y157.561 E39.62155
G1 X109.363 Y157.387 E39.84429
G1 X107.496 Y157.091 E40.07113
G1 X105.653 Y156.680 E40.29772
G1 X103.862 Y156.159 E40.52155
G1 X102.086 Y155.520 E40.74805
G1 X100.370 Y154.777 E40.97244
G1 X98.684 Y153.918 E41.19951
G1 X97.064 Y152.960 E41.42535
G1 X95.523 Y151.913 E41.64892
G1 X94.033 Y150.756 E41.87529
G1 X92.618 Y149.509 E42.10162
G1 X91.300 Y148.191 E42.32529
G1 X90.053 Y146.776 E42.55162
G1 X88.896 Y145.286 E42.77800
G1 X87.849 Y143.745 E43.00156
G1 X86.884 Y142.112 E43.22918
G1 X86.037 Y140.452 E43.45281
G1 X85.289 Y138.723 E43.67887
G1 X84.649 Y136.943 E43.90586
G1 X84.130 Y135.160 E44.12870
G1 X83.718 Y133.313 E44.35579
G1 X83.496 Y131.914 E44.52577
G1 X83.289 Y130.037 E44.75237
G1 X83.203 Y128.170 E44.97665
G1 X83.188 Y127.709 E45.03200
G1 X83.232 Y126.294 E45.20188
G1 X83.248 Y125.815 E45.25940
G1 X83.421 Y123.980 E45.48057
G1 X83.644 Y122.573 E45.65152
G1 X84.029 Y120.711 E45.87969
G1 X84.126 Y120.275 E45.93328
G1 X84.649 Y118.477 E46.15799
G1 X85.132 Y117.132 E46.32948
G1 X85.845 Y115.410 E46.55313
G1 X86.683 Y113.702 E46.78143
G1 X86.884 Y113.308 E46.83451
G1 X87.849 Y111.675 E47.06213
G1 X88.896 Y110.134 E47.28569
G1 X90.052 Y108.644 E47.51199
G1 X90.978 Y107.595 E47.67990
G1 X91.634 Y106.896 E47.79494
G1 X92.618 Y105.911 E47.96201
G0 F9000 X108.580 Y122.899
G1 F1200 X108.013 Y123.503 E48.06142
G1 X107.530 Y124.169 E48.16015
G1 X107.127 Y124.899 E48.26021
G1 X106.823 Y125.666 E48.35922
G1 X106.619 Y126.458 E48.45736
G1 X106.513 Y127.283 E48.55717
G1 X106.499 Y127.723 E48.61000
G1 X106.543 Y128.449 E48.69728
G1 X106.700 Y129.325 E48.80407
G1 X106.830 Y129.772 E48.85994
G1 X107.127 Y130.520 E48.95651
G1 X107.522 Y131.237 E49.05474
G1 X107.759 Y131.589 E49.10567
G1 X108.295 Y132.235 E49.20640
G1 X108.885 Y132.790 E49.30360
G1 X109.228 Y133.056 E49.35568
G1 X109.920 Y133.494 E49.45396
G1 X110.670 Y133.847 E49.55343
G1 X111.449 Y134.101 E49.65175
G1 X111.877 Y134.195 E49.70434
G1 X112.685 Y134.297 E49.80207
G1 X113.122 Y134.311 E49.85454
G1 X113.926 Y134.258 E49.95122
G1 X114.741 Y134.103 E50.05078
G1 X115.520 Y133.850 E50.14906
G1 X115.909 Y133.681 E50.19996
G1 X116.298 Y133.483 E50.25234
G1 X116.979 Y133.050 E50.34918
G1 X117.610 Y132.527 E50.44753
G1 X117.916 Y132.221 E50.49946
G1 X118.407 Y131.628 E50.59184
G1 X118.872 Y130.908 E50.69470
G1 X119.078 Y130.501 E50.74943
G1 X119.365 Y129.782 E50.84233
G1 X119.583 Y128.946 E50.94601
G1 X119.685 Y128.137 E51.04386
G1 X119.700 Y127.688 E51.09777
G1 X119.649 Y126.898 E51.19277
G1 X119.492 Y126.069 E51.29401
G1 X119.244 Y125.303 E51.39063
G1 X118.883 Y124.533 E51.49268
G1 X118.453 Y123.852 E51.58933
G1 X118.179 Y123.496 E51.64324
G1 X117.624 Y122.905 E51.74053
G1 X116.976 Y122.369 E51.84144
G1 X116.615 Y122.126 E51.89366
G1 X115.909 Y121.738 E51.99033
G1 X115.139 Y121.432 E52.08976
G1 X114.345 Y121.229 E52.18811
G1 X113.512 Y121.123 E52.28887
G1 X113.075 Y121.110 E52.34134
G1 X112.273 Y121.162 E52.43778
G1 X111.457 Y121.317 E52.53745
G1 X110.678 Y121.570 E52.63573
G1 X110.289 Y121.739 E52.68663
G1 X109.900 Y121.937 E52.73901
G1 X109.219 Y122.370 E52.83585
G1 X108.580 Y122.899 E52.93540
G0 F9000 X108.855 Y123.191
;TYPE:WALL-OUTER
G1 F1200 X108.322 Y123.758 E53.02878
G1 X107.869 Y124.384 E53.12150
G1 X107.490 Y125.070 E53.21555
G1 X107.204 Y125.790 E53.30852
G1 X107.012 Y126.534 E53.40072
G1 X106.912 Y127.315 E53.49521
G1 X106.899 Y127.723 E53.54419
G1 X106.911 Y128.099 E53.58934
G1 X106.940 Y128.394 E53.62491
G1 X107.090 Y129.234 E53.72730
G1 X107.209 Y129.642 E53.77830
G1 X107.490 Y130.349 E53.86960
G1 X107.863 Y131.028 E53.96256
G1 X108.330 Y131.671 E54.05792
G1 X108.582 Y131.956 E54.10358
G1 X109.145 Y132.485 E54.19628
G1 X109.458 Y132.728 E54.24383
G1 X110.113 Y133.143 E54.33688
G1 X110.817 Y133.474 E54.43023
G1 X111.554 Y133.714 E54.52324
G1 X112.334 Y133.862 E54.61851
G1 X113.115 Y133.910 E54.71241
G1 X113.875 Y133.861 E54.80380
G1 X114.641 Y133.715 E54.89737
G1 X115.378 Y133.475 E54.99039
G1 X115.738 Y133.319 E55.03747
G1 X116.099 Y133.135 E55.08609
G1 X116.743 Y132.726 E55.17764
G1 X117.341 Y132.231 E55.27079
G1 X117.620 Y131.952 E55.31814
G1 X118.098 Y131.374 E55.40815
G1 X118.115 Y131.353 E55.41139
G1 X118.524 Y130.710 E55.50283
G1 X118.713 Y130.336 E55.55312
G1 X118.989 Y129.645 E55.64241
G1 X119.189 Y128.871 E55.73834
G1 X119.286 Y128.105 E55.83099
G1 X119.299 Y127.694 E55.88034
G1 X119.252 Y126.948 E55.97004
G1 X119.104 Y126.168 E56.06531
G1 X118.869 Y125.444 E56.15665
G1 X118.708 Y125.071 E56.20540
G1 X118.535 Y124.731 E56.25118
G1 X118.125 Y124.081 E56.34340
G1 X117.874 Y123.756 E56.39268
G1 X117.345 Y123.193 E56.48538
G1 X117.040 Y122.925 E56.53410
G1 X116.406 Y122.468 E56.62789
G1 X115.738 Y122.101 E56.71935
G1 X115.015 Y121.813 E56.81274
G1 X114.264 Y121.621 E56.90576
G1 X113.487 Y121.522 E56.99975
G1 X113.082 Y121.511 E57.04837
G1 X112.323 Y121.559 E57.13963
G1 X111.557 Y121.705 E57.23320
G1 X110.820 Y121.945 E57.32622
G1 X110.460 Y122.101 E57.37330
G1 X110.099 Y122.285 E57.42192
G1 X109.455 Y122.694 E57.51347
G1 X108.855 Y123.191 E57.60696
G0 F9000 X108.638 Y122.985
G0 X91.565 Y106.822
G0 X91.342 Y106.622
G1 F1200 X92.345 Y105.618 E57.77726
G1 X93.773 Y104.359 E58.00571
G1 X95.288 Y103.184 E58.23578
G1 X96.852 Y102.120 E58.46277
G1 X98.497 Y101.148 E58.69206
G1 X100.187 Y100.286 E58.91972
G1 X101.946 Y99.525 E59.14970
G1 X103.732 Y98.883 E59.37745
G1 X105.562 Y98.350 E59.60617
G1 X107.413 Y97.937 E59.83376
G1 X109.306 Y97.637 E60.06375
G1 X111.194 Y97.459 E60.29132
G1 X113.099 Y97.398 E60.52003
G1 X115.004 Y97.459 E60.74875
G1 X116.892 Y97.637 E60.97631
G1 X118.785 Y97.937 E61.20631
G1 X120.636 Y98.350 E61.43389
G1 X122.466 Y98.883 E61.66262
G1 X124.252 Y99.525 E61.89036
G1 X126.011 Y100.286 E62.12035
G1 X127.701 Y101.148 E62.34801
G1 X129.346 Y102.120 E62.57729
G1 X130.910 Y103.184 E62.80428
G1 X132.425 Y104.359 E63.03435
G1 X133.853 Y105.618 E63.26280
G1 X135.191 Y106.956 E63.48987
G1 X136.450 Y108.384 E63.71832
G1 X137.625 Y109.899 E63.94839
G1 X138.689 Y111.463 E64.17538
G1 X139.415 Y112.692 E64.34667
G1 X140.312 Y114.386 E64.57669
G1 X141.284 Y116.557 E64.86213
G1 X141.925 Y118.338 E65.08927
G1 X142.457 Y120.166 E65.31773
G1 X142.872 Y122.024 E65.54619
G1 X143.096 Y123.434 E65.71751
G1 X143.306 Y125.336 E65.94714
G1 X143.350 Y125.801 E66.00319
G1 X143.411 Y127.704 E66.23166
G1 X143.350 Y129.615 E66.46110
G1 X143.172 Y131.503 E66.68867
G1 X142.947 Y132.922 E66.86107
G1 X142.562 Y134.787 E67.08959
G1 X142.460 Y135.242 E67.14555
G1 X141.926 Y137.077 E67.37488
G1 X141.284 Y138.863 E67.60263
G1 X140.524 Y140.620 E67.83235
G1 X139.664 Y142.307 E68.05957
G1 X138.689 Y143.957 E68.28956
G1 X137.892 Y145.129 E68.45964
G1 X136.743 Y146.658 E68.68915
G1 X136.450 Y147.036 E68.74654
G1 X135.511 Y148.101 E68.91692
G1 X134.858 Y148.796 E69.03136
G1 X133.853 Y149.802 E69.20200
G1 X132.425 Y151.061 E69.43045
G1 X130.910 Y152.236 E69.66052
G1 X129.346 Y153.300 E69.88751
G1 X127.701 Y154.272 E70.11680
G1 X126.011 Y155.134 E70.34445
G1 X124.253 Y155.895 E70.57433
G1 X122.466 Y156.537 E70.80219
G1 X120.636 Y157.070 E71.03091
G1 X118.785 Y157.483 E71.25849
G1 X116.892 Y157.783 E71.48849
G1 X115.004 Y157.961 E71.71605
G1 X113.099 Y158.022 E71.94477
G1 X111.194 Y157.961 E72.17349
G1 X109.306 Y157.783 E72.40105
G1 X107.413 Y157.483 E72.63105
G1 X105.562 Y157.070 E72.85863
G1 X103.732 Y156.537 E73.08736
G1 X101.945 Y155.895 E73.31521
G1 X100.187 Y155.134 E73.54509
G1 X98.497 Y154.272 E73.77275
G1 X96.852 Y153.300 E74.00203
G1 X95.288 Y152.236 E74.22903
G1 X93.773 Y151.061 E74.45910
G1 X92.345 Y149.802 E74.68755
G1 X91.007 Y148.464 E74.91461
G1 X89.748 Y147.036 E75.14306
G1 X88.573 Y145.521 E75.37313
G1 X87.509 Y143.957 E75.60013
G1 X86.534 Y142.307 E75.83011
G1 X85.674 Y140.620 E76.05734
G1 X84.914 Y138.863 E76.28706
G1 X84.272 Y137.077 E76.51480
G1 X83.738 Y135.242 E76.74414
G1 X83.326 Y133.396 E76.97111
G1 X83.101 Y131.977 E77.14352
G1 X82.892 Y130.081 E77.37241
G1 X82.848 Y129.615 E77.42858
G1 X82.787 Y127.716 E77.65658
G1 X82.848 Y125.801 E77.88650
G1 X83.026 Y123.917 E78.11358
G1 X83.251 Y122.498 E78.28599
G1 X83.636 Y120.634 E78.51439
G1 X83.738 Y120.178 E78.57046
G1 X84.273 Y118.338 E78.80041
G1 X84.914 Y116.557 E79.02755
G1 X85.480 Y115.247 E79.19879
G1 X86.324 Y113.526 E79.42881
G1 X86.534 Y113.113 E79.48441
G1 X87.509 Y111.463 E79.71440
G1 X88.573 Y109.899 E79.94139
G1 X89.748 Y108.384 E80.17146
G1 X90.686 Y107.321 E80.34158
G1 X91.342 Y106.622 E80.45661
G0 F9000 X91.867 Y106.857
;TYPE:SKIN
G1 F900 X108.156 Y123.146 E83.22095
G0 F9000 X108.429 Y122.854
G1 F900 X92.150 Y106.575 E85.98359
G0 F9000 X92.432 Y106.292
G1 F900 X108.731 Y122.590 E88.74953
G0 F9000 X109.040 Y122.333
G1 F900 X92.716 Y106.010 E91.51972
G0 F9000 X93.017 Y105.745
G1 F900 X109.375 Y122.103 E94.29577
G0 F9000 X109.721 Y121.883
G1 F900 X93.318 Y105.480 E97.07945
G0 F9000 X93.618 Y105.215
G1 F900 X110.087 Y121.683 E99.87425
G0 F9000 X110.474 Y121.504
G1 F900 X93.920 Y104.950 E102.68355
G0 F9000 X94.226 Y104.692
G1 F900 X110.888 Y121.353 E105.51110
G0 F9000 X111.315 Y121.215
G1 F900 X94.545 Y104.444 E108.35715
G0 F9000 X94.863 Y104.197
G1 F900 X111.778 Y121.112 E111.22772
G0 F9000 X112.253 Y121.022
G1 F900 X95.181 Y103.949 E114.12502
G0 F9000 X95.499 Y103.702
G1 F900 X112.784 Y120.987 E117.05838
G0 F9000 X113.340 Y120.976
G1 F900 X95.829 Y103.466 E120.03001
G0 F9000 X96.166 Y103.237
G1 F900 X113.967 Y121.039 E123.05103
G0 F9000 X114.658 Y121.163
G1 F900 X96.503 Y103.009 E126.13195
G0 F9000 X96.840 Y102.780
G1 F900 X115.475 Y121.415 E129.29441
G0 F9000 X116.563 Y121.937
G1 F900 X97.179 Y102.553 E132.58399
G0 F9000 X97.534 Y102.343
G1 F900 X138.466 Y143.274 E139.53029
G0 F9000 X138.675 Y142.918
G1 F900 X97.890 Y102.133 E146.45174
